symbols/web/topic/materialsymbolssharp/topic_wght700gradN25_48px.svg

<svg xmlns="http://www.w3.org/2000/svg" height="48" width="48"><path d="M12.6 23.4h22.85v-2.85H12.6Zm0 8h14.85v-2.85H12.6ZM3.05 6.45h17.6l3.4 3.45H45.1v31.15H3.05Zm4.6 4.65v25.35H40.5V14.5H22.15l-3.4-3.4Zm0 25.35V11.1 36.45Z"/></svg>

<svg xmlns="http://www.w3.org/2000/svg" height="48" width="48"><path d="M12.6 23.4H35.45V20.55H12.6ZM12.6 31.4H27.45V28.55H12.6ZM3.05 6.45H20.65L24.05 9.9H45.1V41.05H3.05ZM7.65 11.1V36.45H40.5V14.5H22.15L18.75 11.1ZM7.65 36.45V11.1V14.5V36.45Z"/></svg>
